img/svgicons/cake.svg

<svg width="43" height="43" viewBox="0 0 43 43" fill="none" xmlns="http://www.w3.org/2000/svg">
<g clip-path="url(#clip0_292_5)">
<path d="M17.9158 30.4696H19.3491V31.9029H17.9158V30.4696Z" fill="#C4C4C4"/>
<path d="M19.3491 31.9029H20.7824V33.3362H19.3491V31.9029Z" fill="#C4C4C4"/>
<path d="M32.2493 30.4696H33.6826V31.9029H32.2493V30.4696Z" fill="#C4C4C4"/>
<path d="M30.8162 31.9029H32.2495V33.3362H30.8162V31.9029Z" fill="#C4C4C4"/>
<path d="M8.59912 31.9029H10.0324V33.3362H8.59912V31.9029Z" fill="#C4C4C4"/>
<path d="M10.0325 30.4696H11.4658V31.9029H10.0325V30.4696Z" fill="#C4C4C4"/>
<path d="M14.3328 21.8694H15.7661V23.303H14.3328V21.8694Z" fill="#C4C4C4"/>
<path d="M15.7661 20.4361H17.1994V21.8694H15.7661V20.4361Z" fill="#C4C4C4"/>
<path d="M27.9495 21.1529H29.3828V22.5862H27.9495V21.1529Z" fill="#C4C4C4"/>
<path d="M37.2661 21.1529H38.6994V22.5862H37.2661V21.1529Z" fill="#C4C4C4"/>
<path d="M40.1334 32.813V17.5695C40.1219 12.5816 36.4545 8.3568 31.5174 7.64458C31.522 7.55633 31.5325 7.47038 31.5325 7.38147V6.103C31.5325 5.70703 31.2117 5.38618 30.816 5.38618H29.5376C27.5712 5.38914 25.7763 6.50685 24.9063 8.2702C23.8637 6.74896 22.0662 5.92716 20.2337 6.1345C18.7853 3.88365 16.2933 2.52219 13.6166 2.51956V3.95287C15.6427 3.95517 17.5491 4.91115 18.763 6.5331C16.3523 7.58454 15.171 10.3258 16.062 12.8001L3.32985 17.6161C3.05395 17.723 2.87384 17.9904 2.87811 18.2863H2.86662V32.813C0.947449 33.5643 0 34.4399 0 35.4864C0 39.4543 14.0638 40.5028 21.5 40.5028C28.9362 40.5028 43 39.4546 43 35.4864C43 34.4399 42.0526 33.5643 40.1334 32.813ZM4.29993 25.073C4.7812 25.0717 5.24345 25.2616 5.5843 25.6012C6.85424 26.8691 8.91087 26.8691 10.1808 25.6012C10.8914 24.8932 12.0406 24.8932 12.7509 25.6012C14.0208 26.8691 16.0778 26.8691 17.3477 25.6012C18.058 24.8932 19.2072 24.8932 19.9177 25.6012C21.1874 26.8691 23.2443 26.8691 24.5143 25.6012C25.2245 24.8932 26.374 24.8932 27.0843 25.6012C28.3529 26.8708 30.4102 26.8711 31.6795 25.6028C31.6802 25.6021 31.6805 25.6018 31.6808 25.6012C32.3914 24.8932 33.5406 24.8932 34.2509 25.6012C35.464 26.8225 37.4223 26.8757 38.7001 25.7222V27.6217C38.3402 27.7752 38.0124 27.9954 37.7346 28.2709C37.0794 28.9241 36.0191 28.9241 35.364 28.2709L35.1645 28.0708C33.9487 26.859 31.9816 26.859 30.7658 28.0708L30.568 28.2693C29.9125 28.9225 28.8526 28.9225 28.1971 28.2693L27.998 28.0695C26.7822 26.8576 24.8151 26.8576 23.599 28.0695L23.4015 28.268C22.746 28.9212 21.686 28.9212 21.0305 28.268L20.8314 28.0682C19.6156 26.856 17.6482 26.856 16.4324 28.0682L16.2346 28.2667C15.5794 28.9199 14.5191 28.9199 13.864 28.2667L13.6648 28.0666C12.4487 26.8547 10.4816 26.8547 9.26584 28.0666L9.06802 28.2654C8.41287 28.9182 7.35257 28.9182 6.6971 28.2654L6.49796 28.0652C5.91434 27.4846 5.12337 27.1601 4.29993 27.1644V25.073ZM38.7001 23.9743C38.3795 24.1298 38.0872 24.3371 37.8343 24.5878C37.124 25.2957 35.9745 25.2957 35.2643 24.5878C33.9956 23.3185 31.9383 23.3178 30.6691 24.5865C30.6684 24.5868 30.6681 24.5874 30.6677 24.5878C29.9572 25.2957 28.808 25.2957 28.0977 24.5878C26.8278 23.3198 24.7708 23.3198 23.5009 24.5878C22.7906 25.2957 21.6414 25.2957 20.9311 24.5878C19.6612 23.3201 17.6042 23.3201 16.3343 24.5878C15.624 25.2957 14.4748 25.2957 13.7643 24.5878C12.4943 23.3201 10.4377 23.3201 9.16775 24.5878C8.45716 25.2957 7.30795 25.2957 6.59769 24.5878C5.98815 23.9792 5.16143 23.6377 4.29993 23.6384V19.0028H7.58681L9.61916 21.0355C10.6401 22.0545 12.2935 22.0545 13.3145 21.0355L15.3468 19.0028H18.3368L20.3692 21.0355C21.3901 22.0545 23.0435 22.0545 24.0645 21.0355L26.0968 19.0028H29.0868L31.1192 21.0355C32.1404 22.0541 33.7932 22.0541 34.8145 21.0355L36.8468 19.0028H38.7001V23.9743ZM4.29993 28.599C4.74348 28.597 5.1693 28.7719 5.48392 29.0842L5.68305 29.2843C6.89886 30.4962 8.86626 30.4962 10.0821 29.2843L10.2799 29.0855C10.935 28.4327 11.9953 28.4327 12.6505 29.0855L12.8499 29.2856C14.0657 30.4975 16.0328 30.4975 17.2486 29.2856L17.4464 29.0872C18.1016 28.434 19.1619 28.434 19.8174 29.0872L20.0165 29.287C21.2323 30.4992 23.1994 30.4992 24.4152 29.287L24.613 29.0885C25.2685 28.4353 26.3284 28.4353 26.9839 29.0885L27.1831 29.2886C28.3989 30.5005 30.3663 30.5005 31.5821 29.2886L31.7799 29.0898C32.435 28.4369 33.4953 28.4369 34.1505 29.0898L34.3496 29.2899C35.5484 30.485 37.4833 30.4998 38.6997 29.3227V34.7696H4.29993V28.599ZM31.4016 10.815L32.4235 11.8363L31.4016 12.8575C30.2859 13.9713 28.4792 13.9713 27.3638 12.8575L26.3419 11.8363L27.3638 10.815C28.4792 9.70121 30.2859 9.70121 31.4016 10.815ZM29.5376 6.8195H30.0999V7.38147C30.0999 7.79483 30.0306 8.20557 29.8952 8.59629C28.5911 8.43029 27.2834 8.87514 26.3511 9.8016L25.8229 10.3291C25.9407 8.36205 27.5669 6.8254 29.5376 6.8195ZM19.5041 7.78269C19.8744 8.60679 20.066 9.49945 20.0667 10.4029V11.1194H21.5V10.4029C21.4987 9.42793 21.315 8.46178 20.959 7.55403C22.931 7.6554 24.4473 9.3364 24.346 11.3084C24.2446 13.2804 22.5636 14.797 20.5916 14.6957C18.6196 14.5943 17.103 12.9133 17.2047 10.9413C17.2775 9.52537 18.1797 8.2866 19.5047 7.78269H19.5041ZM16.7378 14.0753C18.3644 16.3104 21.4948 16.8035 23.7299 15.1769C24.4992 14.6169 25.093 13.8496 25.4417 12.9641L26.3491 13.8709C28.0245 15.543 30.7376 15.543 32.4134 13.8709L33.9422 12.3428C34.222 12.0629 34.222 11.6096 33.9422 11.3294L32.415 9.8016C32.1145 9.50929 31.7723 9.26324 31.3993 9.07198C35.5933 9.72057 38.6906 13.326 38.7001 17.5695H36.5499C36.36 17.5695 36.1776 17.6453 36.0434 17.7795L33.8008 20.0221C33.3395 20.4814 32.5938 20.4814 32.1326 20.0221L29.8899 17.7795C29.7557 17.6453 29.5733 17.5695 29.3834 17.5695H25.7999C25.61 17.5695 25.4276 17.6453 25.2934 17.7795L23.0508 20.0221C22.5895 20.4814 21.8438 20.4814 21.3826 20.0221L19.1399 17.7795C19.0057 17.6453 18.8233 17.5695 18.6334 17.5695H15.0499C14.86 17.5695 14.6776 17.6453 14.5434 17.7795L12.3008 20.0221C11.8395 20.4814 11.0938 20.4814 10.6326 20.0221L8.38991 17.7795C8.25573 17.6453 8.07333 17.5695 7.88338 17.5695H7.50282L16.7378 14.0753ZM21.5 39.0695C8.51621 39.0695 1.43331 36.7045 1.43331 35.4864C1.43331 35.3014 1.76794 34.8713 2.86662 34.3667V35.4864C2.86662 35.882 3.18747 36.2029 3.58344 36.2029H39.4166C39.8125 36.2029 40.1334 35.882 40.1334 35.4864V34.3667C41.2321 34.8686 41.5667 35.2984 41.5667 35.4864C41.5667 36.7045 34.4838 39.0695 21.5 39.0695V39.0695Z" fill="#C4C4C4"/>
</g>
<defs>
<clipPath id="clip0_292_5">
<rect width="43" height="43" fill="white"/>
</clipPath>
</defs>
</svg>

<svg width="43" height="43" fill="none" xmlns="http://www.w3.org/2000/svg"><g clip-path="url(#a)" fill="#C4C4C4"><path d="M17.916 30.47h1.433v1.433h-1.433V30.47ZM19.35 31.903h1.432v1.433H19.35v-1.433ZM32.25 30.47h1.433v1.433h-1.434V30.47ZM30.816 31.903h1.433v1.433h-1.433v-1.433ZM8.6 31.903h1.432v1.433H8.6v-1.433ZM10.033 30.47h1.433v1.433h-1.433V30.47ZM14.333 21.87h1.433v1.433h-1.433v-1.434ZM15.766 20.436H17.2v1.433h-1.433v-1.433ZM27.95 21.153h1.433v1.433H27.95v-1.433ZM37.266 21.153H38.7v1.433h-1.433v-1.433Z"/><path d="M40.133 32.813V17.569a10.05 10.05 0 0 0-8.616-9.924c.005-.089.015-.175.015-.264V6.103a.717.717 0 0 0-.716-.717h-1.278a5.173 5.173 0 0 0-4.632 2.884 4.986 4.986 0 0 0-4.672-2.135 7.878 7.878 0 0 0-6.617-3.615v1.433a6.437 6.437 0 0 1 5.146 2.58 4.992 4.992 0 0 0-2.701 6.267L3.33 17.616a.708.708 0 0 0-.452.67h-.011v14.527C.947 33.564 0 34.44 0 35.486c0 3.968 14.064 5.017 21.5 5.017S43 39.455 43 35.486c0-1.046-.947-1.922-2.867-2.673ZM4.3 25.073c.481-.001.943.189 1.284.528a3.253 3.253 0 0 0 4.597 0 1.82 1.82 0 0 1 2.57 0 3.253 3.253 0 0 0 4.597 0 1.82 1.82 0 0 1 2.57 0 3.253 3.253 0 0 0 4.596 0 1.82 1.82 0 0 1 2.57 0 3.25 3.25 0 0 0 4.597 0 1.82 1.82 0 0 1 2.57 0 3.225 3.225 0 0 0 4.45.121v1.9c-.36.153-.689.373-.966.649a1.679 1.679 0 0 1-2.371 0l-.2-.2a3.116 3.116 0 0 0-4.398 0l-.198.198a1.68 1.68 0 0 1-2.37 0l-.2-.2a3.116 3.116 0 0 0-4.399 0l-.198.199a1.68 1.68 0 0 1-2.37 0l-.2-.2a3.115 3.115 0 0 0-4.399 0l-.197.199a1.679 1.679 0 0 1-2.371 0l-.2-.2a3.116 3.116 0 0 0-4.398 0l-.198.198a1.68 1.68 0 0 1-2.37 0l-.2-.2a3.094 3.094 0 0 0-2.198-.9v-2.092Zm34.4-1.099c-.32.156-.613.363-.866.614a1.82 1.82 0 0 1-2.57 0 3.25 3.25 0 0 0-4.595-.002l-.001.002a1.82 1.82 0 0 1-2.57 0 3.253 3.253 0 0 0-4.597 0 1.82 1.82 0 0 1-2.57 0 3.253 3.253 0 0 0-4.597 0 1.82 1.82 0 0 1-2.57 0 3.253 3.253 0 0 0-4.596 0 1.82 1.82 0 0 1-2.57 0 3.248 3.248 0 0 0-2.298-.95v-4.635h3.287l2.032 2.032a2.616 2.616 0 0 0 3.696 0l2.032-2.032h2.99l2.032 2.032a2.616 2.616 0 0 0 3.695 0l2.033-2.032h2.99l2.032 2.032a2.616 2.616 0 0 0 3.696 0l2.032-2.032H38.7v4.971ZM4.3 28.6a1.67 1.67 0 0 1 1.184.485l.199.2a3.116 3.116 0 0 0 4.4 0l.197-.198a1.68 1.68 0 0 1 2.37 0l.2.2a3.115 3.115 0 0 0 4.399 0l.197-.199a1.68 1.68 0 0 1 2.371 0l.2.2a3.115 3.115 0 0 0 4.398 0l.198-.198a1.68 1.68 0 0 1 2.37 0l.2.2a3.116 3.116 0 0 0 4.4 0l.197-.2a1.68 1.68 0 0 1 2.37 0l.2.2a3.104 3.104 0 0 0 4.35.034v5.447H4.3v-6.171Zm27.102-17.784 1.021 1.021-1.021 1.021a2.857 2.857 0 0 1-4.038 0l-1.022-1.02 1.022-1.022a2.857 2.857 0 0 1 4.038 0ZM29.538 6.82h.562v.561c0 .414-.07.825-.205 1.215a4.264 4.264 0 0 0-3.544 1.206l-.528.527a3.732 3.732 0 0 1 3.715-3.51Zm-10.034.963c.37.824.562 1.716.563 2.62v.716H21.5v-.716a7.832 7.832 0 0 0-.541-2.849 3.576 3.576 0 1 1-1.454.229Zm-2.766 6.292a5.005 5.005 0 0 0 8.704-1.11l.907.906a4.293 4.293 0 0 0 6.064 0l1.53-1.528a.717.717 0 0 0 0-1.014l-1.528-1.527a4.215 4.215 0 0 0-1.016-.73A8.618 8.618 0 0 1 38.7 17.57h-2.15a.717.717 0 0 0-.507.21l-2.242 2.242c-.462.46-1.207.46-1.668 0L29.89 17.78a.717.717 0 0 0-.507-.21H25.8a.717.717 0 0 0-.507.21l-2.242 2.242c-.461.46-1.207.46-1.668 0L19.14 17.78a.717.717 0 0 0-.507-.21H15.05a.717.717 0 0 0-.507.21l-2.242 2.242c-.462.46-1.207.46-1.668 0L8.39 17.78a.717.717 0 0 0-.507-.21h-.38l9.235-3.495ZM21.5 39.07c-12.984 0-20.067-2.365-20.067-3.584 0-.185.335-.615 1.434-1.12v1.12c0 .396.32.717.716.717h35.834c.395 0 .716-.321.716-.717v-1.12c1.1.503 1.434.932 1.434 1.12 0 1.219-7.083 3.584-20.067 3.584Z"/></g><defs><clipPath id="a"><path fill="#fff" d="M0 0h43v43H0z"/></clipPath></defs></svg>
